images/design.svg

<svg xmlns="http://www.w3.org/2000/svg" width="649.8" height="649.8" viewBox="-286 72.2 649.8 649.8" enable-background="new -286 72.2 649.8 649.8"><style type="text/css">.st0{fill:#919191;} .st1{fill:#A7A7A7;} .st2{fill:#BDBDBD;} .st3{fill:none;stroke:#919191;stroke-width:10;stroke-miterlimit:10;} .st4{fill:#ABACAC;} .st5{fill:#BBB9B9;} .st6{fill:#B7B7B7;}</style><path class="st0" d="M43.3 546.4h-50.1c-4.2 0-7.7-3.1-8.3-7.3-2.1-16.8-10.2-59-39.5-83.9-9.7-8.3-17.7-18.4-22.7-30.2-5.5-12.8-9.9-30.6-8.6-53.2 1.5-24.6 10.1-48.2 24.5-68.1 17.6-24.3 49.2-54.3 97.8-54.3h-1.4c44.3 0 74.7 25 93.3 47.8 20.6 25.4 31.7 57.3 29.8 90-.9 15.5-4.5 28.1-8.6 37.9-5 11.7-13 21.9-22.7 30.1-29.3 24.9-37.4 67.1-39.5 83.9-.5 4.2-4.1 7.3-8.3 7.3h-51.8"/><path class="st0" d="M81.5 579.3h-87.7c-3.9 0-9.1-3.2-9.1-7.1v-5.3c0-3.9 3.2-7.1 7.1-7.1h89.7c3.9 0 7.1 3.2 7.1 7.1v5.3c0 3.9-3.1 7.1-7.1 7.1z"/><path class="st1" d="M78.9 605.9h-82.9c-3.9 0-7.1-3.2-7.1-7.1v-5.3c0-3.9 3.2-7.1 7.1-7.1h82.9c3.9 0 5.1 3.2 5.1 7.1v5.3c.1 3.9-1.1 7.1-5.1 7.1z"/><path class="st2" d="M59.9 632.7h-43.2c-3.9 0-7.1-3.2-7.1-7.1v-5.3c0-3.9 3.2-7.1 7.1-7.1h43.2c3.9 0 7.1 3.2 7.1 7.1v5.3c0 3.9-3.2 7.1-7.1 7.1z"/><circle class="st3" cx="38.9" cy="398.1" r="317.9"/><path class="st4" d="M-109.5 389l-69.1 6.6c-2 .2-3.7-1.4-3.7-3.3 0-1.7 1.3-3.2 3.1-3.4l69.1-6.6c2-.2 3.7 1.4 3.7 3.3 0 1.8-1.4 3.3-3.1 3.4zm-.2-34.4l-68.1-9.4c-1.9-.3-3.2-2-2.9-3.9.3-1.8 2-3.1 3.8-2.8l68.1 9.4c1.9.3 3.2 2 2.9 3.9-.2 1.8-1.9 3-3.8 2.8zm11.9-36.2l-67.6-28c-1.4-.6-2.2-2-1.9-3.5.3-2 2.5-3.2 4.4-2.4l67.6 28c1.4.6 2.2 2 1.9 3.5-.3 2-2.5 3.2-4.4 2.4zm20.2-34.2l-57.3-45.5c-1.2-.9-1.6-2.6-.9-3.9.9-1.9 3.3-2.4 4.9-1.1l57.3 45.5c1.2.9 1.6 2.6.9 3.9-.9 1.8-3.3 2.4-4.9 1.1z"/><path class="st5" d="M1.6 230l-18-70.9c-.4-1.5.3-3 1.7-3.7 1.8-.9 4.1.1 4.6 2.1l18 70.9c.4 1.5-.3 3-1.7 3.7-1.8.9-4-.1-4.6-2.1zm49.3-7.3l11-72.3c.2-1.5 1.5-2.6 3-2.7 2.1-.1 3.7 1.7 3.4 3.7l-11 72.3c-.2 1.5-1.5 2.6-3 2.7-2.1.1-3.8-1.7-3.4-3.7zm-94.5 29.1l-36.2-63.5c-.7-1.3-.5-3 .6-4 1.5-1.4 4-1 5 .8l36.2 63.5c.7 1.3.5 3-.6 4-1.5 1.4-3.9 1-5-.8z"/><path class="st6" d="M94.9 232.6l30.9-66.3c.6-1.4 2.1-2.1 3.6-1.8 2 .4 3.1 2.6 2.2 4.5l-30.9 66.3c-.6 1.4-2.1 2.1-3.6 1.8-2-.5-3.1-2.7-2.2-4.5zm31 23l51.3-52.1c1.1-1.1 2.7-1.3 4-.5 1.8 1.1 2 3.5.6 5l-51.3 52.2c-1.1 1.1-2.7 1.3-4 .5-1.7-1.1-2-3.6-.6-5.1zm90.6-8.9l-60.4 41.3c-1.2.8-2.9.7-4-.3-1.5-1.4-1.3-3.9.4-5l60.4-41.3c1.2-.8 2.9-.7 4 .3 1.5 1.4 1.3 3.8-.4 5zm24.7 54.1l-71 17.5c-1.5.4-3-.3-3.7-1.7-.9-1.8.1-4.1 2.1-4.6l71-17.5c1.5-.4 3 .3 3.7 1.7.9 1.9-.1 4.1-2.1 4.6zm13.5 49.9l-73 4.1c-1.5.1-2.9-.9-3.3-2.3-.6-2 .9-4 2.9-4.1l73-4.1c1.5-.1 2.9.9 3.3 2.3.6 1.9-.8 4-2.9 4.1zm1 46.6l-69.4-1.8c-2-.1-3.5-1.8-3.3-3.8.2-1.7 1.7-3 3.4-3l69.4 1.8c2 .1 3.5 1.8 3.3 3.8-.2 1.8-1.7 3.1-3.4 3z"/></svg>

<?xml version="1.0" encoding="utf-8"?>
<!-- Generator: Adobe Illustrator 19.1.0, SVG Export Plug-In . SVG Version: 6.00 Build 0)  -->
<!DOCTYPE svg PUBLIC "-//W3C//DTD SVG 1.1//EN" "http://www.w3.org/Graphics/SVG/1.1/DTD/svg11.dtd">
<svg version="1.1" id="Layer_1" xmlns="http://www.w3.org/2000/svg" xmlns:xlink="http://www.w3.org/1999/xlink" x="0px" y="0px"
	 width="649.8px" height="649.8px" viewBox="-286 72.2 649.8 649.8" style="enable-background:new -286 72.2 649.8 649.8;"
	 xml:space="preserve">
<style type="text/css">
	.st0{fill:#919191;}
	.st1{fill:#A7A7A7;}
	.st2{fill:#BDBDBD;}
	.st3{fill:none;stroke:#919191;stroke-width:10;stroke-miterlimit:10;}
	.st4{fill:#ABACAC;}
	.st5{fill:#BBB9B9;}
	.st6{fill:#B7B7B7;}
</style>
<path class="st0" d="M43.3,546.4H-6.8c-4.2,0-7.7-3.1-8.3-7.3c-2.1-16.8-10.2-59-39.5-83.9c-9.7-8.3-17.7-18.4-22.7-30.2
	c-5.5-12.8-9.9-30.6-8.6-53.2c1.5-24.6,10.1-48.2,24.5-68.1c17.6-24.3,49.2-54.3,97.8-54.3H35c44.3,0,74.7,25,93.3,47.8
	c20.6,25.4,31.7,57.3,29.8,90c-0.9,15.5-4.5,28.1-8.6,37.9c-5,11.7-13,21.9-22.7,30.1c-29.3,24.9-37.4,67.1-39.5,83.9
	c-0.5,4.2-4.1,7.3-8.3,7.3H27.2"/>
<path class="st0" d="M81.5,579.3H-6.2c-3.9,0-9.1-3.2-9.1-7.1v-5.3c0-3.9,3.2-7.1,7.1-7.1h89.7c3.9,0,7.1,3.2,7.1,7.1v5.3
	C88.6,576.1,85.5,579.3,81.5,579.3z"/>
<path class="st1" d="M78.9,605.9H-4c-3.9,0-7.1-3.2-7.1-7.1v-5.3c0-3.9,3.2-7.1,7.1-7.1h82.9c3.9,0,5.1,3.2,5.1,7.1v5.3
	C84.1,602.7,82.9,605.9,78.9,605.9z"/>
<path class="st2" d="M59.9,632.7H16.7c-3.9,0-7.1-3.2-7.1-7.1v-5.3c0-3.9,3.2-7.1,7.1-7.1h43.2c3.9,0,7.1,3.2,7.1,7.1v5.3
	C67,629.5,63.8,632.7,59.9,632.7z"/>
<circle class="st3" cx="38.9" cy="398.1" r="317.9"/>
<path class="st4" d="M-109.5,389l-69.1,6.6c-2,0.2-3.7-1.4-3.7-3.3c0-1.7,1.3-3.2,3.1-3.4l69.1-6.6c2-0.2,3.7,1.4,3.7,3.3
	C-106.4,387.4-107.8,388.9-109.5,389L-109.5,389z M-109.7,354.6l-68.1-9.4c-1.9-0.3-3.2-2-2.9-3.9c0.3-1.8,2-3.1,3.8-2.8l68.1,9.4
	c1.9,0.3,3.2,2,2.9,3.9C-106.1,353.6-107.8,354.8-109.7,354.6z M-97.8,318.4l-67.6-28c-1.4-0.6-2.2-2-1.9-3.5c0.3-2,2.5-3.2,4.4-2.4
	l67.6,28c1.4,0.6,2.2,2,1.9,3.5C-93.7,318-95.9,319.2-97.8,318.4z M-77.6,284.2l-57.3-45.5c-1.2-0.9-1.6-2.6-0.9-3.9
	c0.9-1.9,3.3-2.4,4.9-1.1l57.3,45.5c1.2,0.9,1.6,2.6,0.9,3.9C-73.6,284.9-76,285.5-77.6,284.2z"/>
<path class="st5" d="M1.6,230l-18-70.9c-0.4-1.5,0.3-3,1.7-3.7c1.8-0.9,4.1,0.1,4.6,2.1l18,70.9c0.4,1.5-0.3,3-1.7,3.7
	C4.4,233,2.2,232,1.6,230L1.6,230z M50.9,222.7l11-72.3c0.2-1.5,1.5-2.6,3-2.7c2.1-0.1,3.7,1.7,3.4,3.7l-11,72.3
	c-0.2,1.5-1.5,2.6-3,2.7C52.2,226.5,50.5,224.7,50.9,222.7z M-43.6,251.8l-36.2-63.5c-0.7-1.3-0.5-3,0.6-4c1.5-1.4,4-1,5,0.8
	l36.2,63.5c0.7,1.3,0.5,3-0.6,4C-40.1,254-42.5,253.6-43.6,251.8z"/>
<path class="st6" d="M94.9,232.6l30.9-66.3c0.6-1.4,2.1-2.1,3.6-1.8c2,0.4,3.1,2.6,2.2,4.5l-30.9,66.3c-0.6,1.4-2.1,2.1-3.6,1.8
	C95.1,236.6,94,234.4,94.9,232.6z M125.9,255.6l51.3-52.1c1.1-1.1,2.7-1.3,4-0.5c1.8,1.1,2,3.5,0.6,5l-51.3,52.2
	c-1.1,1.1-2.7,1.3-4,0.5C124.8,259.6,124.5,257.1,125.9,255.6L125.9,255.6z M216.5,246.7L156.1,288c-1.2,0.8-2.9,0.7-4-0.3
	c-1.5-1.4-1.3-3.9,0.4-5l60.4-41.3c1.2-0.8,2.9-0.7,4,0.3C218.4,243.1,218.2,245.5,216.5,246.7L216.5,246.7z M241.2,300.8l-71,17.5
	c-1.5,0.4-3-0.3-3.7-1.7c-0.9-1.8,0.1-4.1,2.1-4.6l71-17.5c1.5-0.4,3,0.3,3.7,1.7C244.2,298.1,243.2,300.3,241.2,300.8z
	 M254.7,350.7l-73,4.1c-1.5,0.1-2.9-0.9-3.3-2.3c-0.6-2,0.9-4,2.9-4.1l73-4.1c1.5-0.1,2.9,0.9,3.3,2.3
	C258.2,348.5,256.8,350.6,254.7,350.7z M255.7,397.3l-69.4-1.8c-2-0.1-3.5-1.8-3.3-3.8c0.2-1.7,1.7-3,3.4-3l69.4,1.8
	c2,0.1,3.5,1.8,3.3,3.8C258.9,396.1,257.4,397.4,255.7,397.3z"/>
</svg>
